X: 244
T:Huc me sydereo
N: Derived from Jos2105.2-Huc_me_sydereo--a_6.krn
C: Josquin des Prez
%%abc-version 2.0
%%abcx-abcm2ps-target-version 5.9.1 (29 Sep 2008)
%%abc-creator hum2abc beta
%%abcx-conversion-date 2019/02/12 16:15:50
%%abc-edited-by Jesse Rodin
%%abc-edited-by Jesse Rodin; Victoria Chang 2011/05/17
%%abcx-initial-encoding-date 17/05/2011
%%humdrum-veritas 3774058943
%%humdrum-veritas-data 773169629
%%linebreak <none>
%%barnumbers 0
L: 1/4
M: 2/1
Q: 1/2=120
V: 1 clef=treble
V: 2 clef=treble-8
V: 3 clef=treble-8
V: 4 clef=treble-8
V: 5 clef=bass
V: 6 clef=bass
K: F
[V:1] z4A4- | 
[V:2] A8 | 
[V:3] z8 :
[V:4] A6F2 | 
[V:5] z8 | 
[V:6] z8 | 
[V:1] A2F2F4 | 
[V:2] z8 | 
[V:3] x8 :
[V:4] F3ED2d2 | 
[V:5] z8 | 
[V:6] z8 | 
[V:1] G4A4 | 
[V:2] z8 | 
[V:3] x8 | 
[V:4] cBc4BA | 
[V:5] z8 | 
[V:6] z8 | 
[V:1] B6AG | 
[V:2] z4d4- | 
[V:3] z8 :
[V:4] GFG4FE | 
[V:5] z8 | 
[V:6] z8 | 
[V:1] F2D2G4- | 
[V:2] d2B2B4 | 
[V:3] x8 :
[V:4] D4_E4- | 
[V:5] z8 | 
[V:6] z8 | 
[V:1] G2FEF3G | 
[V:2] c4d4 | 
[V:3] x8 | 
[V:4] E2F2D4 | 
[V:5] z8 | 
[V:6] z8 | 
[V:1] G8 | 
[V:2] _e6dc | 
[V:3] z8 :
[V:4] C3D_E3F | 
[V:5] z8 | 
[V:6] z8 | 
[V:1] G4A4 | 
[V:2] B2G2c4- | 
[V:3] x8 :
[V:4] G4F4 | 
[V:5] z8 | 
[V:6] z8 | 
[V:1] G2A4GF | 
[V:2] c2BAB3c | 
[V:3] x8 | 
[V:4] E2F2D4 | 
[V:5] z8 | 
[V:6] z8 | 
[V:1] E8 | 
[V:2] c8 | 
[V:3] z8 :
[V:4] A6A,2 | 
[V:5] z4A,4- | 
[V:6] z8 | 
[V:1] z2A4GA | 
[V:2] c4d4- | 
[V:3] x8 :
[V:4] A,4D4 | 
[V:5] A,2F,2F,4 | 
[V:6] z8 | 
[V:1] BAGFE4 | 
[V:2] d2B2c3d | 
[V:3] x8 | 
[V:4] G,4C4 | 
[V:5] G,4A,4 | 
[V:6] z8 | 
[V:1] D8 | 
[V:2] d8 | 
[V:3] z8 :
[V:4] B,4G,4 | 
[V:5] B,6A,G, | 
[V:6] z4D,4- | 
[V:1] z8 | 
[V:2] z2d4cd | 
[V:3] x8 :
[V:4] D8 | 
[V:5] F,2D,2G,4- | 
[V:6] D,2B,,2B,,4 | 
[V:1] z8 | 
[V:2] _edcBA4 | 
[V:3] x8 | 
[V:4] z8 | 
[V:5] G,2^F,E,F,3G, | 
[V:6] C,4D,4 | 
[V:1] z8 | 
[V:2] G8- | 
[V:3] z8 :
[V:4] z8 | 
[V:5] G,8 | 
[V:6] _E,6D,C, | 
[V:1] z8 | 
[V:2] G8- | 
[V:3] x8 :
[V:4] z8 | 
[V:5] D,4E,4- | 
[V:6] B,,2G,,2C,4- | 
[V:1] z8 | 
[V:2] G8- | 
[V:3] x8 | 
[V:4] z8 | 
[V:5] E,2D,C,D,3E, | 
[V:6] C,2B,,A,,B,,3C, | 
[V:1] z4G4 | 
[V:2] G8 | 
[V:3] z8 :
[V:4] G4G4- | 
[V:5] E,8- | 
[V:6] C,8- | 
[V:1] G6F2 | 
[V:2] z4c4 | 
[V:3] x8 :
[V:4] G2F2E2D2 | 
[V:5] E,8 | 
[V:6] C,8- | 
[V:1] E2D2C4 | 
[V:2] c6B2 | 
[V:3] x8 | 
[V:4] C4z4 | 
[V:5] z4A,4 | 
[V:6] C,8 | 
[V:1] z4A4 | 
[V:2] A2G2F4 | 
[V:3] z8 :
[V:4] A4A4- | 
[V:5] A,6G,2 | 
[V:6] D,8- | 
[V:1] A6G2 | 
[V:2] z4d4 | 
[V:3] x8 :
[V:4] A2G2F2E2 | 
[V:5] F,2E,2D,4 | 
[V:6] D,8- | 
[V:1] F2E2D4 | 
[V:2] d6c2 | 
[V:3] x8 | 
[V:4] D4z4 | 
[V:5] z4D4 | 
[V:6] D,8 | 
[V:1] z4d4 | 
[V:2] B2A2G4 | 
[V:3] z8 :
[V:4] d4d4- | 
[V:5] D6C2 | 
[V:6] z8 | 
[V:1] d6c2 | 
[V:2] z4g4 | 
[V:3] x8 :
[V:4] d2c2B2A2 | 
[V:5] B,2A,2G,4 | 
[V:6] z8 | 
[V:1] B2A2G4- | 
[V:2] g6f2 | 
[V:3] x8 | 
[V:4] G8 | 
[V:5] z8 | 
[V:6] z8 | 
[V:1] G2F2E2D2 | 
[V:2] e2d2c2B2 | 
[V:3] z8 :
[V:4] z8 | 
[V:5] z8 | 
[V:6] z8 | 
[V:1] C2B,2A,4 | 
[V:2] A2G2c4 | 
[V:3] x8 :
[V:4] z8 | 
[V:5] z8 | 
[V:6] z8 | 
[V:1] G,8 | 
[V:2] B8 | 
[V:3] x8 | 
[V:4] z8 | 
[V:5] D4D4- | 
[V:6] z4D4 | 
[V:1] z8 | 
[V:2] z8 | 
[V:3] z8 :
[V:4] d4d4- | 
[V:5] D2C2B,2A,2 | 
[V:6] D6C2 | 
[V:1] z8 | 
[V:2] z8 | 
[V:3] x8 :
[V:4] d2c2B2A2 | 
[V:5] G,6F,2 | 
[V:6] B,2A,2G,4- | 
[V:1] z8 | 
[V:2] z8 | 
[V:3] x8 | 
[V:4] G2A4G2 | 
[V:5] E,2D,2C,2B,,2 | 
[V:6] G,2F,2E,2D,2 | 
[V:1] z8 | 
[V:2] z8 | 
[V:3] z8 :
[V:4] A2B2c4 | 
[V:5] A,,G,,G,3^F,F,E, | 
[V:6] C,2B,,2A,,4 | 
[V:1] z4D4- | 
[V:2] z4B4- | 
[V:3] x8 :
[V:4] B6AG | 
[V:5] G,8- | 
[V:6] G,,8- | 
[V:1] D4D4 | 
[V:2] B4B4 | 
[V:3] x8 | 
[V:4] d2G2dcBA | 
[V:5] G,8 | 
[V:6] G,,8 | 
[V:1] D4E4- | 
[V:2] B4c4- | 
[V:3] z8 :
[V:4] G4C4- | 
[V:5] z8 | 
[V:6] z8 | 
[V:1] E2C2C4 | 
[V:2] c2A2A2F2- | 
[V:3] x8 :
[V:4] C2DEF2GA | 
[V:5] z8 | 
[V:6] z8 | 
[V:1] F6F2 | 
[V:2] F2D2D2B2- | 
[V:3] x8 | 
[V:4] D4z2d2- | 
[V:5] z8 | 
[V:6] z8 | 
[V:1] F4F4- | 
[V:2] B2AGA2d2- | 
[V:3] z8 :
[V:4] d2cBc2d2 | 
[V:5] z8 | 
[V:6] z8 | 
[V:1] F2EDE2D2 | 
[V:2] d2^c=B^c2d2 | 
[V:3] x8 :
[V:4] A6D2 | 
[V:5] z8 | 
[V:6] z8 | 
[V:1] D8- | 
[V:2] d8 | 
[V:3] x8 | 
[V:4] D2G3ABc | 
[V:5] z4B,4- | 
[V:6] z4G,4- | 
[V:1] D8 | 
[V:2] z8 | 
[V:3] z8 :
[V:4] d2G2d3c | 
[V:5] B,4B,4 | 
[V:6] G,4G,4 | 
[V:1] z8 | 
[V:2] z8 | 
[V:3] x8 :
[V:4] d2e4c2 | 
[V:5] B,4C4- | 
[V:6] G,4A,4- | 
[V:1] z8 | 
[V:2] z8 | 
[V:3] x8 | 
[V:4] c4f4- | 
[V:5] C2A,2A,2D,2- | 
[V:6] A,2F,2F,4 | 
[V:1] z8 | 
[V:2] z8 | 
[V:3] z8 :
[V:4] f2f2f2g2- | 
[V:5] D,2B,,2B,,2_E,2- | 
[V:6] B,6B,2 | 
[V:1] z8 | 
[V:2] z8 | 
[V:3] x8 :
[V:4] g2fef2g2 | 
[V:5] E,2D,C,D,2G,2- | 
[V:6] B,4B,4- | 
[V:1] z8 | 
[V:2] z8 | 
[V:3] x8 | 
[V:4] d2_e2c4 | 
[V:5] G,2^F,E,F,2G,2 | 
[V:6] B,2A,G,A,2G,2 | 
[V:1] z4B4- | 
[V:2] z8 | 
[V:3] G8- :
[V:4] B4d4- | 
[V:5] G,8 | 
[V:6] G,8- | 
[V:1] B4B4 | 
[V:2] d6d2 | 
[V:3] G8- :
[V:4] d2d2d2G2 | 
[V:5] G,,8 | 
[V:6] G,8 | 
[V:1] B4B4 | 
[V:2] d4d4 | 
[V:3] G8 | 
[V:4] B3cd3e | 
[V:5] G,8 | 
[V:6] G,,8 | 
[V:1] A6F2 | 
[V:2] d8 | 
[V:3] A8- :
[V:4] f8- | 
[V:5] F,6F,2 | 
[V:6] D,6D,2 | 
[V:1] F4z2F2- | 
[V:2] A4D3E | 
[V:3] A8- :
[V:4] f8 | 
[V:5] F,4F,4 | 
[V:6] D,4D,4 | 
[V:1] F2D2F4 | 
[V:2] F2G2A4 | 
[V:3] A8 | 
[V:4] z4d4 | 
[V:5] F,6E,D, | 
[V:6] D,8 | 
[V:1] E4c4- | 
[V:2] z4A4- | 
[V:3] c8- :
[V:4] e2A2A3G | 
[V:5] A,8 | 
[V:6] A,,8 | 
[V:1] c2B2A4 | 
[V:2] A2B2c2d2 | 
[V:3] c8- :
[V:4] A4F4 | 
[V:5] z4F,4 | 
[V:6] F,8 | 
[V:1] G8 | 
[V:2] _e8 | 
[V:3] c8 | 
[V:4] C6D_E | 
[V:5] G,2C,2G,3A, | 
[V:6] _E,6D,2 | 
[V:1] F8- | 
[V:2] d3ef2B2 | 
[V:3] d8- :
[V:4] F2B,2B,3C | 
[V:5] B,6A,G, | 
[V:6] B,,8 | 
[V:1] F4z2B2 | 
[V:2] A2B4AG | 
[V:3] d8- :
[V:4] D2B,2B4 | 
[V:5] F,2G,2D,4 | 
[V:6] z2B,,2B,,3C, | 
[V:1] A2B4AG | 
[V:2] F2G2D2B2 | 
[V:3] d8 | 
[V:4] z4B4 | 
[V:5] z2B,,2B,,3C, | 
[V:6] D,2G,,2D,4 | 
[V:1] F2G2D2B2 | 
[V:2] A2B4AG | 
[V:3] d8- :
[V:4] z4B4 | 
[V:5] D,2G,,2D,4 | 
[V:6] z2B,,2B,,3C, | 
[V:1] A2B4AG | 
[V:2] F2G2D2B2- | 
[V:3] d8- :
[V:4] z4B4- | 
[V:5] z2B,,2B,,3C, | 
[V:6] D,2G,,2D,4 | 
[V:1] F2G2A4 | 
[V:2] B2AGF2G2 | 
[V:3] d8 | 
[V:4] B4A4 | 
[V:5] D,2G,,2D,4 | 
[V:6] z4F,4- | 
[V:1] z8 | 
[V:2] A4z4 | 
[V:3] z8 :
[V:4] D4A4- | 
[V:5] z4D,4- | 
[V:6] F,4F,4 | 
[V:1] z8 | 
[V:2] d8 | 
[V:3] x8 :
[V:4] A4G2B2- | 
[V:5] D,4G,,4 | 
[V:6] F,4G,4- | 
[V:1] z8 | 
[V:2] d4d4 | 
[V:3] x8 | 
[V:4] B2AGF4- | 
[V:5] B,6A,G, | 
[V:6] G,4D,4- | 
[V:1] z8 | 
[V:2] d6c2 | 
[V:3] z8 :
[V:4] F2G2A4 | 
[V:5] A,4D,4- | 
[V:6] D,4F,4- | 
[V:1] z8 | 
[V:2] A3Bc2B2- | 
[V:3] x8 :
[V:4] D4C2D2- | 
[V:5] D,2E,F,G,2F,2- | 
[V:6] F,2E,D,E,2D,2- | 
[V:1] z8 | 
[V:2] BAA4G2 | 
[V:3] x8 | 
[V:4] D2E2F2D2 | 
[V:5] F,2E,2D,4 | 
[V:6] D,2C,2B,,4 | 
[V:1] z4c4 | 
[V:2] A8 | 
[V:3] c8- :
[V:4] F2E4A2- | 
[V:5] C,3D,E,2F,2 | 
[V:6] A,,8- | 
[V:1] c6c2 | 
[V:2] z4A4 | 
[V:3] c8- :
[V:4] A2GFE4 | 
[V:5] E,2F,2C,4 | 
[V:6] A,,8 | 
[V:1] c4A4- | 
[V:2] A6F2 | 
[V:3] c8 | 
[V:4] z2c4A2- | 
[V:5] z4F,4 | 
[V:6] F,,8 | 
[V:1] A2F2F4 | 
[V:2] F6B2- | 
[V:3] d8- :
[V:4] A2A2d4- | 
[V:5] D,4D,4 | 
[V:6] z4B,,4 | 
[V:1] B6G2 | 
[V:2] B2G2G4- | 
[V:3] d8 :
[V:4] d2cdB2cB | 
[V:5] G,8 | 
[V:6] G,,4G,,4 | 
[V:1] G6c2- | 
[V:2] G2c6 | 
[V:3] e8 | 
[V:4] c4C4 | 
[V:5] E,8 | 
[V:6] C,8 | 
[V:1] c4A3F | 
[V:2] A3FF4- | 
[V:3] c8 :
[V:4] C2DEF3E/F/ | 
[V:5] F,4z2F,2- | 
[V:6] F,,8 | 
[V:1] F8 | 
[V:2] F8 | 
[V:3] d8- :
[V:4] D3B,B,2F2- | 
[V:5] F,2F,2D,3B,, | 
[V:6] B,,8 | 
[V:1] F4B4- | 
[V:2] B8- | 
[V:3] d4d4 | 
[V:4] F2D2D3B, | 
[V:5] B,,8 | 
[V:6] z4B,,4 | 
[V:1] B4G2FE | 
[V:2] B8 | 
[V:3] d8- :
[V:4] B8- | 
[V:5] z4B,4- | 
[V:6] B,,8 | 
[V:1] D4d4- | 
[V:2] z4B4- | 
[V:3] d8- :
[V:4] B8- | 
[V:5] B,2A,2G,2F,E, | 
[V:6] z4B,,4 | 
[V:1] d2c2B2AG | 
[V:2] B2A2G2FE | 
[V:3] d8 | 
[V:4] B8 | 
[V:5] D,8 | 
[V:6] B,,8- | 
[V:1] F8 | 
[V:2] D4f4- | 
[V:3] z8 :
[V:4] z8 | 
[V:5] B,6B,2 | 
[V:6] B,,8 | 
[V:1] z8 | 
[V:2] f2f2f2e2- | 
[V:3] x8 :
[V:4] z8 | 
[V:5] B,4A,4 | 
[V:6] z8 | 
[V:1] z8 | 
[V:2] edd2^c3d | 
[V:3] x8 | 
[V:4] z8 | 
[V:5] G,2F,2E,4 | 
[V:6] z8 | 
[V:1] z4F4- | 
[V:2] d8 | 
[V:3] z8 :
[V:4] d6d2 | 
[V:5] D,8 | 
[V:6] B,6B,2 | 
[V:1] F2F2F2E2- | 
[V:2] z8 | 
[V:3] x8 :
[V:4] d4c4 | 
[V:5] z8 | 
[V:6] B,4A,4 | 
[V:1] EDD2^C3D | 
[V:2] z8 | 
[V:3] x8 | 
[V:4] B2A2G4 | 
[V:5] z8 | 
[V:6] G,2F,2E,4 | 
[V:1] D8 | 
[V:2] z4d4 | 
[V:3] A8- :
[V:4] A3FF4 | 
[V:5] z4D,4 | 
[V:6] D,8 | 
[V:1] z4A4 | 
[V:2] c4d4 | 
[V:3] A8- :
[V:4] z4f4 | 
[V:5] F,6G,2 | 
[V:6] z4D,4 | 
[V:1] A4A4 | 
[V:2] c6c2 | 
[V:3] A8 | 
[V:4] f4f4 | 
[V:5] A,4F,4- | 
[V:6] F,4F,4 | 
[V:1] B6B2 | 
[V:2] B6AG | 
[V:3] d8- :
[V:4] f6f2 | 
[V:5] F,4B,4- | 
[V:6] B,,6B,,2 | 
[V:1] B8 | 
[V:2] F4f4 | 
[V:3] d8 :
[V:4] f4z2d2 | 
[V:5] B,2B,2B,4 | 
[V:6] B,,8 | 
[V:1] z4G4- | 
[V:2] z2e4e2 | 
[V:3] c8- | 
[V:4] e2cdefg2- | 
[V:5] G,6G,2 | 
[V:6] C,6C,2 | 
[V:1] G2G2G2G2 | 
[V:2] e4d4 | 
[V:3] c4B4 :
[V:4] g2GABcd2- | 
[V:5] G,4G,4 | 
[V:6] C,4G,,4 | 
[V:1] A2FGABc2- | 
[V:2] f6c2 | 
[V:3] A8 :
[V:4] d2DEFGA2 | 
[V:5] F,2D,2F,2E,2- | 
[V:6] D,6A,,2 | 
[V:1] c2G2d4 | 
[V:2] _e4d2B2 | 
[V:3] G8 | 
[V:4] E2G3FDG | 
[V:5] E,2C,2D,4 | 
[V:6] C,4B,,4 | 
[V:1] c3BAGA2- | 
[V:2] c2A3Bcd | 
[V:3] A8- :
[V:4] C3DF2E2 | 
[V:5] E,4z2A,,2 | 
[V:6] A,,8- | 
[V:1] A2GFE4 | 
[V:2] efd4^c2 | 
[V:3] A8- :
[V:4] A,2A2z2A2- | 
[V:5] C,2D,2E,4 | 
[V:6] A,,8 | 
[V:1] D8 | 
[V:2] d4z4 | 
[V:3] A8 | 
[V:4] AAA2F2D2 | 
[V:5] F,4D,4- | 
[V:6] D,8 | 
[V:1] z4D4 | 
[V:2] B8 | 
[V:3] G8- :
[V:4] d4z2d2- | 
[V:5] D,4D,4 | 
[V:6] G,,8 | 
[V:1] D4E4- | 
[V:2] B4c4- | 
[V:3] G8- :
[V:4] d2d2c3B | 
[V:5] G,8 | 
[V:6] G,,4C,4- | 
[V:1] E4E4 | 
[V:2] c4G4 | 
[V:3] G8 | 
[V:4] G2c4c2 | 
[V:5] G,4E,4- | 
[V:6] C,4C,4 | 
[V:1] E6E2 | 
[V:2] c6c2 | 
[V:3] z8 :
[V:4] c4z2A2- | 
[V:5] E,2E,2E,4 | 
[V:6] A,,6A,,2 | 
[V:1] E4z4 | 
[V:2] c2A4A2 | 
[V:3] x8 :
[V:4] A2A2A2D2 | 
[V:5] z4F,4- | 
[V:6] A,,4D,4- | 
[V:1] z8 | 
[V:2] A2B3AA2- | 
[V:3] x8 | 
[V:4] F2D2F2D2 | 
[V:5] F,2F,2F,2F,2 | 
[V:6] D,2D,2D,2D,2 | 
[V:1] z4z2F2- | 
[V:2] A2G2A2c2- | 
[V:3] z8 :
[V:4] A2B2c4 | 
[V:5] E,2D,2C,2A,2- | 
[V:6] C,2B,,2A,,4 | 
[V:1] F2F2F2F2 | 
[V:2] c2c2c2c2 | 
[V:3] x8 :
[V:4] z8 | 
[V:5] A,2A,2A,2A,2 | 
[V:6] z8 | 
[V:1] E2D2C4 | 
[V:2] B2A2G4 | 
[V:3] x8 | 
[V:4] z4z2G2 | 
[V:5] G,2F,2E,4 | 
[V:6] z8 | 
[V:1] z8 | 
[V:2] z8 | 
[V:3] F8- :
[V:4] A2D2A3G | 
[V:5] z2A,2D,2A,2- | 
[V:6] D,6D,2 | 
[V:1] z8 | 
[V:2] A3Bc2d2- | 
[V:3] F4G4 :
[V:4] FED2[M:3/1](3E3FG2 | 
[V:5] A,G,F,2E,2D,2 | 
[V:6] D,2D,2C,2B,,2 | 
[V:1] z4F4- | 
[V:2] d2^c2d4 | 
[V:3] A8 | 
[V:4] (3C3DE2[M:2/1]F4- | 
[V:5] E,4D,4 | 
[V:6] A,,4D,4- | 
[V:1] F2F2F2F2 | 
[V:2] D3EF4 | 
[V:3] B8 :
[V:4] F2D2D4 | 
[V:5] z4D,4 | 
[V:6] D,2D,2D,2D,2 | 
[V:1] E2D2C4 | 
[V:2] G4A3A | 
[V:3] c8 :
[V:4] z8 | 
[V:5] E,4E,4 | 
[V:6] C,2B,,2A,,4 | 
[V:1] z2F3GA2 | 
[V:2] A2A2F2D2 | 
[V:3] A8 | 
[V:4] z8 | 
[V:5] F,4D,3D, | 
[V:6] D,3D,D,2D,2 | 
[V:1] D2d2z2d2- | 
[V:2] D4d3d | 
[V:3] B8- :
[V:4] d3dd2d2 | 
[V:5] D,2D,2B,,2G,,2 | 
[V:6] B,,2G,,2G,,4 | 
[V:1] d2d2d2d2 | 
[V:2] d2d2B2G2 | 
[V:3] B8- :
[V:4] B2G2G4 | 
[V:5] G,,4G,4 | 
[V:6] z4G,,4- | 
[V:1] B3GG2G2 | 
[V:2] G4d4- | 
[V:3] B8 | 
[V:4] d3dd2d2 | 
[V:5] z2G,3G,G,2 | 
[V:6] G,,8 | 
[V:1] A3FF4 | 
[V:2] d2f4ed | 
[V:3] A8- :
[V:4] f4d4 | 
[V:5] F,2D,2F,4 | 
[V:6] D,8 | 
[V:1] z2c2A3B | 
[V:2] c4F4 | 
[V:3] A8- :
[V:4] e2c2d2f2 | 
[V:5] E,4z2D,2 | 
[V:6] A,,4D,4 | 
[V:1] c4z4 | 
[V:2] z2c2A3B | 
[V:3] A8- | 
[V:4] e4z2d2 | 
[V:5] E,2C,2F,4 | 
[V:6] C,4D,4 | 
[V:1] z2c2A3B | 
[V:2] c8- | 
[V:3] A8- :
[V:4] e2c4BA | 
[V:5] E,8- | 
[V:6] A,,8- | 
[V:1] c8 ||  
[V:2] c8 ||  
[V:3] A8 ||  
[V:4] e8 ||  
[V:5] E,8 ||  
[V:6] A,,8 ||  
[V:1] [M:2/1]G8 | 
[V:2] [M:2/1]z8 | 
[V:3] [M:2/1]z8 | 
[V:4] [M:2/1]c8 | 
[V:5] [M:2/1]z8 | 
[V:6] [M:2/1]z8 | 
[V:1] G4A4- | 
[V:2] z8 | 
[V:3] z8 | 
[V:4] C4F4- | 
[V:5] z8 | 
[V:6] z8 | 
[V:1] A4G4 | 
[V:2] c8 | 
[V:3] z8 | 
[V:4] F4E4 | 
[V:5] z8 | 
[V:6] z8 | 
[V:1] c4B2A2- | 
[V:2] c4d4- | 
[V:3] z8 | 
[V:4] A4G2F2 | 
[V:5] z8 | 
[V:6] z8 | 
[V:1] A2GFE4 | 
[V:2] d4c4 | 
[V:3] z8 | 
[V:4] D4A4 | 
[V:5] z8 | 
[V:6] z8 | 
[V:1] D4z4 | 
[V:2] f4e2d2- | 
[V:3] z8 | 
[V:4] D4z4 | 
[V:5] z8 | 
[V:6] z8 | 
[V:1] A4A4 | 
[V:2] d2cBA4 | 
[V:3] z8 | 
[V:4] F4F4 | 
[V:5] z8 | 
[V:6] z8 | 
[V:1] B3GB2A2- | 
[V:2] G4d4 | 
[V:3] z8 | 
[V:4] G2E2G2F2- | 
[V:5] z8 | 
[V:6] z8 | 
[V:1] A2B4AG | 
[V:2] d4_e4- | 
[V:3] z8 | 
[V:4] F2G4FE | 
[V:5] z8 | 
[V:6] z8 | 
[V:1] c6B2 | 
[V:2] e2dc_e3d | 
[V:3] z8 | 
[V:4] A6B2 | 
[V:5] z8 | 
[V:6] z8 | 
[V:1] A2G4FE | 
[V:2] c2B2A4 | 
[V:3] z8 | 
[V:4] c2d4^c2 | 
[V:5] z8 | 
[V:6] z8 | 
[V:1] F8 | 
[V:2] D4z2F2- | 
[V:3] z8 | 
[V:4] d8 | 
[V:5] A,4A,4 | 
[V:6] z4D,4 | 
[V:1] z8 | 
[V:2] F2F2G4- | 
[V:3] z8 | 
[V:4] z8 | 
[V:5] B,6A,G, | 
[V:6] D,4_E,4- | 
[V:1] z8 | 
[V:2] G2FEG2F2 | 
[V:3] z8 | 
[V:4] z8 | 
[V:5] C4B,3A,/B,/ | 
[V:6] E,2D,C,_E,2D,2 | 
[V:1] z8 | 
[V:2] E2D3CCB, | 
[V:3] z8 | 
[V:4] z8 | 
[V:5] A,2G,3^F,F,E, | 
[V:6] C,2B,,2A,,4 | 
[V:1] B8 | 
[V:2] D4d4- | 
[V:3] z8 | 
[V:4] d6c2 | 
[V:5] G,8 | 
[V:6] G,,8- | 
[V:1] B4B4 | 
[V:2] d4d3e | 
[V:3] G8 | 
[V:4] B4B4 | 
[V:5] z4G,4 | 
[V:6] G,,8 | 
[V:1] A4c4- | 
[V:2] f4z2F2 | 
[V:3] A8 | 
[V:4] c3AA2c2- | 
[V:5] F,4F,2A,2- | 
[V:6] z8 | 
[V:1] c2BAG4 | 
[V:2] F4G3A | 
[V:3] c8 | 
[V:4] c2d2e4 | 
[V:5] A,2G,F,E,4 | 
[V:6] z8 | 
[V:1] F8 | 
[V:2] B2A2B4 | 
[V:3] d8 | 
[V:4] f4z4 | 
[V:5] D,4z4 | 
[V:6] z8 | 
[V:1] z2F4F2 | 
[V:2] A4z2A2- | 
[V:3] d8 | 
[V:4] d6d2 | 
[V:5] F,6F,2 | 
[V:6] D,6D,2 | 
[V:1] F4D4 | 
[V:2] A2A2B4 | 
[V:3] z8 | 
[V:4] d4d4 | 
[V:5] F,4G,4 | 
[V:6] D,4B,,4 | 
[V:1] E6E2 | 
[V:2] G4A4- | 
[V:3] z8 | 
[V:4] c6c2 | 
[V:5] E,6E,2 | 
[V:6] C,6A,,2 | 
[V:1] E4z2c2 | 
[V:2] A2A2A4 | 
[V:3] c8 | 
[V:4] c3de2c2 | 
[V:5] E,8 | 
[V:6] A,,8 | 
[V:1] A2B3cd2 | 
[V:2] F2G3AB2 | 
[V:3] d8 | 
[V:4] fedcd2G2 | 
[V:5] z8 | 
[V:6] z8 | 
[V:1] G2c3BAG | 
[V:2] c2A3GFE | 
[V:3] e4c4 | 
[V:4] c3AA2f2- | 
[V:5] z4F,4- | 
[V:6] z8 | 
[V:1] F8 | 
[V:2] D4z4 | 
[V:3] d6d2 | 
[V:4] fedcB4 | 
[V:5] F,4F,4 | 
[V:6] B,,8 | 
[V:1] z8 | 
[V:2] D4D4 | 
[V:3] d8 | 
[V:4] z2d4d2 | 
[V:5] F,4G,4 | 
[V:6] B,,4B,,4 | 
[V:1] z8 | 
[V:2] E4F3G | 
[V:3] z8 | 
[V:4] c4A4 | 
[V:5] A,8 | 
[V:6] C,4D,4- | 
[V:1] z8 | 
[V:2] A2B4AG | 
[V:3] z8 | 
[V:4] d8 | 
[V:5] D,8 | 
[V:6] D,4G,,4 | 
[V:1] z8 | 
[V:2] A2D2f4- | 
[V:3] A8 | 
[V:4] d8 | 
[V:5] F,6F,2 | 
[V:6] D,6D,2 | 
[V:1] z8 | 
[V:2] f2f2f4 | 
[V:3] d8 | 
[V:4] z8 | 
[V:5] F,4B,4 | 
[V:6] D,4B,,4 | 
[V:1] z8 | 
[V:2] z2f2e2f2- | 
[V:3] c6B2 | 
[V:4] z8 | 
[V:5] A,4G,2F,2- | 
[V:6] F,4C,2D,2- | 
[V:1] z8 | 
[V:2] fec2d4 | 
[V:3] A4G4 | 
[V:4] z8 | 
[V:5] F,2E,2D,4 | 
[V:6] D,C,A,,2B,,4 | 
[V:1] c6c2 | 
[V:2] c4z2c2- | 
[V:3] A8 | 
[V:4] e8 | 
[V:5] E,8- | 
[V:6] A,,8 | 
[V:1] c4G4 | 
[V:2] c2c2c4 | 
[V:3] G8 | 
[V:4] e4e4- | 
[V:5] E,4z2G,2- | 
[V:6] C,6C,2 | 
[V:1] z4B4- | 
[V:2] G4d4- | 
[V:3] z8 | 
[V:4] e4d2G2 | 
[V:5] G,2G,2G,4 | 
[V:6] C,4G,,2G,2- | 
[V:1] B2A2G4 | 
[V:2] d2A2B4 | 
[V:3] z8 | 
[V:4] d8 | 
[V:5] D,4D4- | 
[V:6] G,2F,2G,4 | 
[V:1] F4z4 | 
[V:2] A4A2B2- | 
[V:3] F6G2 | 
[V:4] z4z2d2 | 
[V:5] D2D2D4 | 
[V:6] D,4z2G,,2 | 
[V:1] z8 | 
[V:2] BAA2G3F | 
[V:3] A4B4 | 
[V:4] f3ed4 | 
[V:5] D4z2D,2 | 
[V:6] D,3C,B,,4 | 
[V:1] A2c3BA2- | 
[V:2] A8 | 
[V:3] c4A4 | 
[V:4] c4z2c2 | 
[V:5] E,4F,4 | 
[V:6] A,,8 | 
[V:1] A2GFG4 | 
[V:2] z4d4 | 
[V:3] B8 | 
[V:4] B2d3cde | 
[V:5] G,8 | 
[V:6] z8 | 
[V:1] A8 | 
[V:2] d8 | 
[V:3] A8- | 
[V:4] f8 | 
[V:5] D,8- | 
[V:6] z4D,4- | 
[V:1] z4A4 | 
[V:2] d4d4- | 
[V:3] A8 | 
[V:4] z4f4 | 
[V:5] D,8 | 
[V:6] D,2E,2F,4 | 
[V:1] B4A2B2- | 
[V:2] d4d4 | 
[V:3] z8 | 
[V:4] d3ef2B2- | 
[V:5] z8 | 
[V:6] G,4D,2G,2- | 
[V:1] B2AGA2D2 | 
[V:2] d6d2 | 
[V:3] z8 | 
[V:4] B2B2A2B2- | 
[V:5] z8 | 
[V:6] G,2F,E,F,2G,2 | 
[V:1] F6F2 | 
[V:2] d4d4 | 
[V:3] z8 | 
[V:4] B2B2B4 | 
[V:5] z8 | 
[V:6] D,2B,4B,2 | 
[V:1] F2B4B2 | 
[V:2] d4d4- | 
[V:3] z8 | 
[V:4] f6f2 | 
[V:5] z8 | 
[V:6] B,2B,,4B,,2 | 
[V:1] B4A4 | 
[V:2] d2cBc4 | 
[V:3] z8 | 
[V:4] f4f4 | 
[V:5] z8 | 
[V:6] B,,4F,4 | 
[V:1] d6c2 | 
[V:2] B4G2A2 | 
[V:3] z8 | 
[V:4] f4B2c2 | 
[V:5] z8 | 
[V:6] B,,2B,4A,2 | 
[V:1] B2A3GG2- | 
[V:2] B2c3BG2 | 
[V:3] z8 | 
[V:4] d2efg2c2 | 
[V:5] z8 | 
[V:6] G,2F,2E,4 | 
[V:1] G2^F2G4 | 
[V:2] A4G4 | 
[V:3] z8 | 
[V:4] d4B2z2 | 
[V:5] z4z2G,2- | 
[V:6] D,4G,,4- | 
[V:1] B3BA2F2 | 
[V:2] z8 | 
[V:3] G4A4 | 
[V:4] B3Bc2d2 | 
[V:5] G,2G,2F,2D,2 | 
[V:6] G,,4z4 | 
[V:1] G4F4- | 
[V:2] z8 | 
[V:3] c4d4 | 
[V:4] G4A2z2 | 
[V:5] E,4D,E,F,G, | 
[V:6] z4D,4- | 
[V:1] F2EDE4 | 
[V:2] z8 | 
[V:3] d4z4 | 
[V:4] F3FG2A2 | 
[V:5] A,F,B,3A,A,2- | 
[V:6] D,2D,2C,2A,,2 | 
[V:1] D4z4 | 
[V:2] d3dc2A2 | 
[V:3] z4c4 | 
[V:4] D4E2A2- | 
[V:5] A,2G,2A,4 | 
[V:6] B,,4A,,4 | 
[V:1] d3dc2A2 | 
[V:2] B4A4 | 
[V:3] d4e2c2 | 
[V:4] A2G2c4 | 
[V:5] z8 | 
[V:6] z8 | 
[V:1] B4A4 | 
[V:2] z8 | 
[V:3] d3dd4 | 
[V:4] B2G2A2F2 | 
[V:5] G,3G,F,2D,2 | 
[V:6] z4D,3D, | 
[V:1] z8 | 
[V:2] z2A2d4 | 
[V:3] z8 | 
[V:4] G2A3GGF | 
[V:5] E,4D,4 | 
[V:6] C,2A,,2B,,4 | 
[V:1] z2E2G4 | 
[V:2] c4z4 | 
[V:3] A4d4 | 
[V:4] A4z4 | 
[V:5] z2A,2B,4 | 
[V:6] A,,4z4 | 
[V:1] F3ED2^C2 | 
[V:2] z8 | 
[V:3] c3BA2G2 | 
[V:4] z8 | 
[V:5] A,3G,F,2E,2 | 
[V:6] z8 | 
[V:1] D8 | 
[V:2] z2f2g4 | 
[V:3] A4G4 | 
[V:4] z2A2d4 | 
[V:5] D,4z4 | 
[V:6] z2A,2B,4 | 
[V:1] z4z2G2 | 
[V:2] f3ed2^c2 | 
[V:3] z8 | 
[V:4] c3cd2e2 | 
[V:5] z4z2G,2 | 
[V:6] A,3G,F,2E,2 | 
[V:1] F2A3GG2- | 
[V:2] d4z4 | 
[V:3] F3GA2B2 | 
[V:4] fdf3ed2 | 
[V:5] B,2A,2F,2G,2 | 
[V:6] D,4z4 | 
[V:1] G2^F2G2d2 | 
[V:2] z2c2d2B2 | 
[V:3] c2A2B4 | 
[V:4] c2F2z4 | 
[V:5] A,4G,4 | 
[V:6] z4G,,4 | 
[V:1] c3BAGA2- | 
[V:2] c2A2z2A2 | 
[V:3] A8- | 
[V:4] z2c2c2A2 | 
[V:5] z2E,2F,4 | 
[V:6] A,,4F,,3G,, | 
[V:1] A2GFE2F2- | 
[V:2] c3AA2A2 | 
[V:3] A8- | 
[V:4] A4z2c2 | 
[V:5] E,2C3B,A,2- | 
[V:6] A,,4z2A,,2 | 
[V:1] F2ED^CDEC | 
[V:2] c3AA2E2 | 
[V:3] A8- | 
[V:4] c2A2A4 | 
[V:5] A,2G,F,E,4 | 
[V:6] F,,3G,,A,,4 | 
[V:1] D8- | 
[V:2] F6D2 | 
[V:3] A8- | 
[V:4] z2A2A2F2 | 
[V:5] D,8- | 
[V:6] D,,8- & D,8- | 
[V:1] D8 |]  
[V:2] D8 |]  
[V:3] A8 |]  
[V:4] F8 |]  
[V:5] D,8 |]  
[V:6] D,,8 & D,8 |]  



